X:1
T:Title
%%score 1 2 3
L:1/8
M:2/2
K:C
V:1 treble nm="Part_1"
V:2 treble-8 nm="Part_2"
V:3 treble-8 nm="Part_3"
V:1
 D3 B, ^C4 | D2 E2 F2 E2 | C2 F3 E E2- | EDDC E4 | z2 D2 C3 B, | D2 E2 D2 F2 | E3 D F4 | z4 G4 | %8
 F4 G2 FG | A4 G2 E2 | F4 G4 | F3 D E4 | D2 F2 E3 C | D4 C4 | z4 F2 E2 | D4 C2 F2- | FEED F4 | %17
 z4 G4 | A4 G4 | F2 D2 E3 F | D4 z4 | F6 D2 | E2 G2 F2 D2 | E2 DE ^C2 B,2 | D8 |] %25
V:2
 A4 G4 | A4 c4 | c4 B4 | A2 G2 B4 | A4 G4 | A4 B4 | c2 B2 c4 | z4 d4 | c4 d4 | e4 d4 | c2 B2 d4 | %11
 c4 B4 | A4 B4 | A4 G4 | z4 c4 | A4 G2 c2 | B2 A2 c4 | z4 d4 | e4 d4 | c4 B4 | A4 z4 | c8 | B4 A4 | %23
 B4 ^G4 | A8 |] %25
V:3
 D4 E4 | D4 A4- | A2 F2 G2 E2 | F4 E4 | F4 E4 | D4 G2 F2 | G4 F4- | F4 _B4 | A4 G4 | c4 B2 G2 | %10
 A4 G4 | A2 F2 G4 | D4 G4 | F4 C4 | z4 A4 | D4 E2 A2 | G4 F4- | F4 _B4 | c4 _B4 | A4 G4 | D8 | %21
 A4 F4 | G4 D2 F2 | G2 F2 E4 | D8 |] %25

